; G-Code generated by Simplify3D(R) Version 3.0.2
; dic. 26, 2016 at 10:27:53 A. M.
; Settings Summary
;   processName,Process1
;   applyToModels,Top,Top(2),Top(3),Top(4),Top(5),Top(6),Top(7),Top(2)(2),Top(3)(2),Top(4)(2),Top(5)(2),Top(6)(2)
;   profileName,Printrbot Simple Metal
;   profileVersion,2016-12-19 07:32:28
;   baseProfile,
;   printMaterial,PLA
;   printQuality,Medium
;   printExtruders,
;   extruderName,Primary Extruder
;   extruderToolheadNumber,0
;   extruderDiameter,0.4
;   extruderAutoWidth,0
;   extruderWidth,0.4
;   extrusionMultiplier,1
;   extruderUseRetract,1
;   extruderRetractionDistance,1
;   extruderExtraRestartDistance,0
;   extruderRetractionZLift,0
;   extruderRetractionSpeed,1800
;   extruderUseCoasting,0
;   extruderCoastingDistance,0.2
;   extruderUseWipe,0
;   extruderWipeDistance,5
;   primaryExtruder,0
;   layerHeight,0.2
;   topSolidLayers,3
;   bottomSolidLayers,3
;   perimeterOutlines,2
;   printPerimetersInsideOut,1
;   startPointOption,2
;   startPointOriginX,0
;   startPointOriginY,0
;   startPointOriginZ,300
;   sequentialIslands,0
;   spiralVaseMode,0
;   firstLayerHeightPercentage,90
;   firstLayerWidthPercentage,100
;   firstLayerUnderspeed,0.5
;   useRaft,0
;   raftExtruder,0
;   raftLayers,3
;   raftOffset,3
;   raftSeparationDistance,0.14
;   raftInfill,85
;   disableRaftBaseLayers,0
;   useSkirt,1
;   skirtExtruder,0
;   skirtLayers,1
;   skirtOutlines,2
;   skirtOffset,4
;   usePrimePillar,0
;   primePillarExtruder,999
;   primePillarWidth,12
;   primePillarLocation,7
;   primePillarSpeedMultiplier,1
;   useOozeShield,0
;   oozeShieldExtruder,999
;   oozeShieldOffset,2
;   oozeShieldOutlines,1
;   oozeShieldSidewallShape,1
;   oozeShieldSidewallAngle,30
;   oozeShieldSpeedMultiplier,1
;   infillExtruder,0
;   internalInfillPattern,Rectilinear
;   externalInfillPattern,Rectilinear
;   infillPercentage,15
;   outlineOverlapPercentage,15
;   infillExtrusionWidthPercentage,100
;   minInfillLength,5
;   infillLayerInterval,1
;   infillAngles,45,-45
;   overlapInfillAngles,0
;   generateSupport,0
;   supportExtruder,0
;   supportInfillPercentage,30
;   supportExtraInflation,0
;   denseSupportLayers,0
;   denseSupportInfillPercentage,70
;   supportLayerInterval,1
;   supportHorizontalPartOffset,0.3
;   supportUpperSeparationLayers,1
;   supportLowerSeparationLayers,1
;   supportType,0
;   supportGridSpacing,4
;   maxOverhangAngle,45
;   supportAngles,0
;   temperatureName,Primary Extruder
;   temperatureNumber,0
;   temperatureSetpointCount,1
;   temperatureSetpointLayers,1
;   temperatureSetpointTemperatures,208
;   temperatureStabilizeAtStartup,1
;   temperatureHeatedBed,0
;   temperatureRelayBetweenLayers,0
;   temperatureRelayBetweenLoops,0
;   fanLayers,1,2
;   fanSpeeds,0,100
;   blipFanToFullPower,1
;   adjustSpeedForCooling,1
;   minSpeedLayerTime,15
;   minCoolingSpeedSlowdown,20
;   increaseFanForCooling,0
;   minFanLayerTime,45
;   maxCoolingFanSpeed,100
;   increaseFanForBridging,0
;   bridgingFanSpeed,100
;   use5D,1
;   relativeEdistances,0
;   allowEaxisZeroing,1
;   independentExtruderAxes,0
;   includeM10123,0
;   stickySupport,1
;   applyToolheadOffsets,0
;   gcodeXoffset,0
;   gcodeYoffset,0
;   gcodeZoffset,0
;   overrideMachineDefinition,1
;   machineTypeOverride,0
;   strokeXoverride,150
;   strokeYoverride,150
;   strokeZoverride,150
;   originOffsetXoverride,0
;   originOffsetYoverride,0
;   originOffsetZoverride,0
;   homeXdirOverride,-1
;   homeYdirOverride,-1
;   homeZdirOverride,-1
;   flipXoverride,1
;   flipYoverride,-1
;   flipZoverride,1
;   toolheadOffsets,0,0|0,0|0,0|0,0|0,0|0,0
;   overrideFirmwareConfiguration,1
;   firmwareTypeOverride,RepRap (Marlin/Repetier/Sprinter)
;   GPXconfigOverride,r2
;   baudRateOverride,250000
;   overridePrinterModels,1
;   printerModelsOverride
;   startingGcode,G28 X0 Y0 ; home X and Y axes,G28 Z0,G29 ; probe Z
;   layerChangeGcode,
;   retractionGcode,
;   toolChangeGcode,
;   endingGcode,M104 S0 T0 ; turn off extruder,M140 S0 T1 ; turn off bed,M107 ; turn off fan,G28 X0 ; home X axis,M84 ; disable motors
;   createX3G,0
;   celebration,0
;   celebrationSong,Random Song
;   createMB5G,0
;   postProcessing,
;   defaultSpeed,3000
;   outlineUnderspeed,0.5
;   solidInfillUnderspeed,0.8
;   supportUnderspeed,0.8
;   rapidXYspeed,3600
;   rapidZspeed,1000
;   minBridgingArea,50
;   bridgingExtraInflation,0
;   bridgingExtrusionMultiplier,1
;   bridgingSpeedMultiplier,1
;   filamentDiameter,1.75
;   filamentPricePerKg,46
;   filamentDensity,1.25
;   useMinPrintHeight,0
;   minPrintHeight,0
;   useMaxPrintHeight,0
;   maxPrintHeight,0
;   useDiaphragm,0
;   diaphragmLayerInterval,20
;   robustSlicing,1
;   mergeAllIntoSolid,0
;   onlyRetractWhenCrossingOutline,1
;   retractBetweenLayers,1
;   useRetractionMinTravel,0
;   retractionMinTravel,3
;   retractWhileWiping,0
;   onlyWipeOutlines,1
;   avoidCrossingOutline,0
;   maxMovementDetourFactor,3
;   toolChangeRetractionDistance,12
;   toolChangeExtraRestartDistance,-0.5
;   toolChangeRetractionSpeed,600
;   allowThinWallGapFill,1
;   thinWallAllowedOverlapPercentage,10
;   horizontalSizeCompensation,0
G90
M82
M106 S0
M104 S208 T0
M109 S208 T0
G28 X0 Y0 ; home X and Y axes
G28 Z0
G29 ; probe Z
G92 E0
G1 E-1.0000 F1800
G1 Z0.180 F1000
; layer 1, Z = 0.18
T0
; tool H0.200 W0.400
; skirt
G1 X7.957 Y9.158 F3600
G1 E0.0000 F540
G92 E0
G1 X8.244 Y8.916 E0.0125 F1500
G1 X8.265 Y8.900 E0.0134
G1 X8.944 Y8.425 E0.0409
G1 X8.966 Y8.411 E0.0418
G1 X9.291 Y8.223 E0.0543
G1 X9.314 Y8.211 E0.0551
G1 X10.065 Y7.861 E0.0827
G1 X10.089 Y7.851 E0.0836
G1 X10.442 Y7.723 E0.0961
G1 X10.467 Y7.715 E0.0969
G1 X11.268 Y7.500 E0.1245
G1 X11.293 Y7.495 E0.1254
G1 X11.663 Y7.429 E0.1379
G1 X11.689 Y7.426 E0.1387
G1 X12.421 Y7.362 E0.1632
G1 X12.434 Y7.361 E0.1636
G1 X12.622 Y7.353 E0.1698
G1 X12.635 Y7.353 E0.1703
G1 X68.822 Y7.353 E2.0391
G1 X68.835 Y7.353 E2.0395
G1 X69.023 Y7.361 E2.0458
G1 X69.036 Y7.362 E2.0462
G1 X69.768 Y7.426 E2.0706
G1 X69.794 Y7.429 E2.0715
G1 X70.164 Y7.495 E2.0840
G1 X70.189 Y7.500 E2.0849
G1 X70.990 Y7.715 E2.1124
G1 X71.015 Y7.723 E2.1133
G1 X71.368 Y7.851 E2.1258
G1 X71.392 Y7.861 E2.1267
G1 X72.143 Y8.211 E2.1542
G1 X72.166 Y8.223 E2.1551
G1 X72.491 Y8.411 E2.1676
G1 X72.513 Y8.425 E2.1685
G1 X73.192 Y8.900 E2.1960
G1 X73.213 Y8.916 E2.1969
G1 X73.500 Y9.158 E2.2094
G1 X73.520 Y9.175 E2.2103
G1 X74.106 Y9.761 E2.2378
G1 X74.123 Y9.781 E2.2387
G1 X74.328 Y10.025 E2.2493
G1 X74.534 Y9.781 E2.2599
G1 X74.551 Y9.761 E2.2608
G1 X75.137 Y9.175 E2.2883
G1 X75.157 Y9.158 E2.2892
G1 X75.444 Y8.916 E2.3017
G1 X75.465 Y8.900 E2.3026
G1 X76.144 Y8.425 E2.3301
G1 X76.166 Y8.411 E2.3310
G1 X76.491 Y8.223 E2.3435
G1 X76.514 Y8.211 E2.3444
G1 X77.265 Y7.861 E2.3719
G1 X77.289 Y7.851 E2.3728
G1 X77.642 Y7.723 E2.3853
G1 X77.667 Y7.715 E2.3862
G1 X78.468 Y7.500 E2.4137
G1 X78.493 Y7.495 E2.4146
G1 X78.863 Y7.429 E2.4271
G1 X78.889 Y7.426 E2.4280
G1 X79.621 Y7.362 E2.4524
G1 X79.634 Y7.361 E2.4528
G1 X79.822 Y7.353 E2.4591
G1 X79.835 Y7.353 E2.4595
G1 X136.022 Y7.353 E4.3283
G1 X136.035 Y7.353 E4.3287
G1 X136.223 Y7.361 E4.3350
G1 X136.236 Y7.362 E4.3354
G1 X136.968 Y7.426 E4.3599
G1 X136.994 Y7.429 E4.3607
G1 X137.364 Y7.495 E4.3732
G1 X137.389 Y7.500 E4.3741
G1 X138.190 Y7.715 E4.4017
G1 X138.215 Y7.723 E4.4025
G1 X138.568 Y7.851 E4.4150
G1 X138.592 Y7.861 E4.4159
G1 X139.343 Y8.211 E4.4434
G1 X139.366 Y8.223 E4.4443
G1 X139.691 Y8.411 E4.4568
G1 X139.713 Y8.425 E4.4577
G1 X140.392 Y8.900 E4.4852
G1 X140.413 Y8.916 E4.4861
G1 X140.700 Y9.158 E4.4986
G1 X140.720 Y9.175 E4.4995
G1 X141.306 Y9.761 E4.5270
G1 X141.323 Y9.781 E4.5279
G1 X141.565 Y10.068 E4.5404
G1 X141.581 Y10.089 E4.5413
G1 X142.056 Y10.768 E4.5688
G1 X142.070 Y10.790 E4.5697
G1 X142.258 Y11.115 E4.5822
G1 X142.270 Y11.138 E4.5830
G1 X142.620 Y11.889 E4.6106
G1 X142.630 Y11.914 E4.6115
G1 X142.759 Y12.267 E4.6240
G1 X142.766 Y12.291 E4.6249
G1 X142.981 Y13.092 E4.6524
G1 X142.986 Y13.117 E4.6533
G1 X143.052 Y13.487 E4.6658
G1 X143.055 Y13.513 E4.6666
G1 X143.119 Y14.245 E4.6911
G1 X143.120 Y14.258 E4.6915
G1 X143.128 Y14.446 E4.6978
G1 X143.128 Y14.459 E4.6982
G1 X143.128 Y26.146 E5.0869
G1 X143.128 Y26.159 E5.0874
G1 X143.120 Y26.347 E5.0936
G1 X143.119 Y26.360 E5.0940
G1 X143.055 Y27.092 E5.1185
G1 X143.052 Y27.118 E5.1193
G1 X142.986 Y27.488 E5.1318
G1 X142.981 Y27.513 E5.1327
G1 X142.766 Y28.314 E5.1603
G1 X142.759 Y28.339 E5.1611
G1 X142.630 Y28.692 E5.1736
G1 X142.620 Y28.716 E5.1745
G1 X142.270 Y29.467 E5.2021
G1 X142.258 Y29.490 E5.2029
G1 X142.070 Y29.815 E5.2154
G1 X142.056 Y29.837 E5.2163
G1 X141.581 Y30.516 E5.2438
G1 X141.565 Y30.537 E5.2447
G1 X141.323 Y30.824 E5.2572
G1 X141.306 Y30.844 E5.2581
G1 X140.997 Y31.153 E5.2726
G1 X141.306 Y31.461 E5.2871
G1 X141.323 Y31.481 E5.2880
G1 X141.565 Y31.768 E5.3005
G1 X141.581 Y31.789 E5.3014
G1 X142.056 Y32.468 E5.3289
G1 X142.070 Y32.490 E5.3298
G1 X142.258 Y32.815 E5.3423
G1 X142.270 Y32.838 E5.3431
G1 X142.620 Y33.589 E5.3707
G1 X142.630 Y33.614 E5.3716
G1 X142.759 Y33.967 E5.3841
G1 X142.766 Y33.991 E5.3849
G1 X142.981 Y34.792 E5.4125
G1 X142.986 Y34.817 E5.4134
G1 X143.052 Y35.187 E5.4259
G1 X143.055 Y35.213 E5.4267
G1 X143.119 Y35.945 E5.4512
G1 X143.120 Y35.958 E5.4516
G1 X143.128 Y36.146 E5.4578
G1 X143.128 Y36.159 E5.4583
G1 X143.128 Y47.846 E5.8470
G1 X143.128 Y47.859 E5.8475
G1 X143.120 Y48.047 E5.8537
G1 X143.119 Y48.060 E5.8541
G1 X143.055 Y48.792 E5.8786
G1 X143.052 Y48.818 E5.8794
G1 X142.986 Y49.188 E5.8919
G1 X142.981 Y49.213 E5.8928
G1 X142.766 Y50.014 E5.9204
G1 X142.758 Y50.039 E5.9212
G1 X142.630 Y50.392 E5.9337
G1 X142.620 Y50.416 E5.9346
G1 X142.270 Y51.167 E5.9622
G1 X142.258 Y51.190 E5.9630
G1 X142.070 Y51.515 E5.9755
G1 X142.056 Y51.537 E5.9764
G1 X141.581 Y52.216 E6.0039
G1 X141.565 Y52.237 E6.0048
G1 X141.323 Y52.524 E6.0173
G1 X141.306 Y52.544 E6.0182
G1 X140.997 Y52.853 E6.0327
G1 X141.306 Y53.161 E6.0472
G1 X141.323 Y53.181 E6.0481
G1 X141.565 Y53.468 E6.0606
G1 X141.581 Y53.489 E6.0615
G1 X142.056 Y54.168 E6.0890
G1 X142.070 Y54.190 E6.0899
G1 X142.258 Y54.515 E6.1024
G1 X142.270 Y54.538 E6.1033
G1 X142.620 Y55.289 E6.1308
G1 X142.630 Y55.314 E6.1317
G1 X142.758 Y55.666 E6.1442
G1 X142.766 Y55.691 E6.1450
G1 X142.981 Y56.492 E6.1726
G1 X142.986 Y56.517 E6.1735
G1 X143.052 Y56.887 E6.1860
G1 X143.055 Y56.913 E6.1868
G1 X143.119 Y57.645 E6.2113
G1 X143.120 Y57.658 E6.2117
G1 X143.128 Y57.846 E6.2179
G1 X143.128 Y57.859 E6.2184
G1 X143.128 Y69.546 E6.6071
G1 X143.128 Y69.559 E6.6076
G1 X143.120 Y69.747 E6.6138
G1 X143.119 Y69.760 E6.6142
G1 X143.055 Y70.492 E6.6387
G1 X143.052 Y70.518 E6.6395
G1 X142.986 Y70.888 E6.6520
G1 X142.981 Y70.913 E6.6529
G1 X142.766 Y71.714 E6.6805
G1 X142.758 Y71.739 E6.6813
G1 X142.630 Y72.091 E6.6938
G1 X142.620 Y72.116 E6.6947
G1 X142.270 Y72.867 E6.7222
G1 X142.258 Y72.890 E6.7231
G1 X142.070 Y73.215 E6.7356
G1 X142.056 Y73.237 E6.7365
G1 X141.581 Y73.916 E6.7640
G1 X141.565 Y73.937 E6.7649
G1 X141.323 Y74.224 E6.7774
G1 X141.306 Y74.244 E6.7783
G1 X140.997 Y74.553 E6.7928
G1 X141.306 Y74.861 E6.8073
G1 X141.323 Y74.881 E6.8082
G1 X141.565 Y75.168 E6.8207
G1 X141.581 Y75.189 E6.8216
G1 X142.056 Y75.868 E6.8491
G1 X142.070 Y75.890 E6.8500
G1 X142.258 Y76.215 E6.8625
G1 X142.270 Y76.238 E6.8633
G1 X142.620 Y76.989 E6.8909
G1 X142.630 Y77.014 E6.8918
G1 X142.758 Y77.366 E6.9043
G1 X142.766 Y77.391 E6.9051
G1 X142.981 Y78.192 E6.9327
G1 X142.986 Y78.217 E6.9336
G1 X143.052 Y78.587 E6.9461
G1 X143.055 Y78.613 E6.9469
G1 X143.119 Y79.345 E6.9714
G1 X143.120 Y79.358 E6.9718
G1 X143.128 Y79.546 E6.9780
G1 X143.128 Y79.559 E6.9785
G1 X143.128 Y91.246 E7.3672
G1 X143.128 Y91.259 E7.3676
G1 X143.120 Y91.447 E7.3739
G1 X143.119 Y91.460 E7.3743
G1 X143.055 Y92.192 E7.3988
G1 X143.052 Y92.218 E7.3996
G1 X142.986 Y92.588 E7.4121
G1 X142.981 Y92.613 E7.4130
G1 X142.766 Y93.414 E7.4406
G1 X142.758 Y93.439 E7.4414
G1 X142.630 Y93.791 E7.4539
G1 X142.620 Y93.816 E7.4548
G1 X142.270 Y94.567 E7.4823
G1 X142.258 Y94.590 E7.4832
G1 X142.070 Y94.915 E7.4957
G1 X142.056 Y94.937 E7.4966
G1 X141.581 Y95.616 E7.5241
G1 X141.565 Y95.637 E7.5250
G1 X141.323 Y95.924 E7.5375
G1 X141.306 Y95.944 E7.5384
G1 X140.997 Y96.253 E7.5529
G1 X141.306 Y96.561 E7.5674
G1 X141.323 Y96.581 E7.5683
G1 X141.565 Y96.868 E7.5808
G1 X141.581 Y96.889 E7.5817
G1 X142.056 Y97.568 E7.6092
G1 X142.070 Y97.590 E7.6101
G1 X142.258 Y97.915 E7.6226
G1 X142.270 Y97.938 E7.6234
G1 X142.620 Y98.689 E7.6510
G1 X142.630 Y98.714 E7.6519
G1 X142.758 Y99.066 E7.6644
G1 X142.766 Y99.091 E7.6652
G1 X142.981 Y99.892 E7.6928
G1 X142.986 Y99.917 E7.6937
G1 X143.052 Y100.287 E7.7062
G1 X143.055 Y100.313 E7.7070
G1 X143.119 Y101.045 E7.7315
G1 X143.120 Y101.058 E7.7319
G1 X143.128 Y101.246 E7.7381
G1 X143.128 Y101.259 E7.7386
G1 X143.128 Y112.946 E8.1273
G1 X143.128 Y112.959 E8.1277
G1 X143.120 Y113.147 E8.1340
G1 X143.119 Y113.160 E8.1344
G1 X143.055 Y113.892 E8.1589
G1 X143.052 Y113.918 E8.1597
G1 X142.986 Y114.288 E8.1722
G1 X142.981 Y114.313 E8.1731
G1 X142.766 Y115.114 E8.2007
G1 X142.758 Y115.139 E8.2015
G1 X142.630 Y115.491 E8.2140
G1 X142.620 Y115.516 E8.2149
G1 X142.270 Y116.267 E8.2424
G1 X142.258 Y116.290 E8.2433
G1 X142.070 Y116.615 E8.2558
G1 X142.056 Y116.637 E8.2567
G1 X141.581 Y117.316 E8.2842
G1 X141.565 Y117.337 E8.2851
G1 X141.323 Y117.624 E8.2976
G1 X141.306 Y117.644 E8.2985
G1 X140.997 Y117.953 E8.3130
G1 X141.306 Y118.261 E8.3275
G1 X141.323 Y118.281 E8.3284
G1 X141.565 Y118.568 E8.3409
G1 X141.581 Y118.589 E8.3417
G1 X142.056 Y119.268 E8.3693
G1 X142.070 Y119.290 E8.3702
G1 X142.258 Y119.615 E8.3827
G1 X142.270 Y119.638 E8.3835
G1 X142.620 Y120.389 E8.4111
G1 X142.630 Y120.414 E8.4120
G1 X142.758 Y120.766 E8.4245
G1 X142.766 Y120.791 E8.4253
G1 X142.981 Y121.592 E8.4529
G1 X142.986 Y121.617 E8.4538
G1 X143.052 Y121.987 E8.4663
G1 X143.055 Y122.013 E8.4671
G1 X143.119 Y122.745 E8.4916
G1 X143.120 Y122.758 E8.4920
G1 X143.128 Y122.946 E8.4982
G1 X143.128 Y122.959 E8.4987
G1 X143.128 Y134.646 E8.8874
G1 X143.128 Y134.659 E8.8878
G1 X143.120 Y134.847 E8.8941
G1 X143.119 Y134.860 E8.8945
G1 X143.055 Y135.592 E8.9190
G1 X143.052 Y135.618 E8.9198
G1 X142.986 Y135.988 E8.9323
G1 X142.981 Y136.013 E8.9332
G1 X142.766 Y136.814 E8.9608
G1 X142.758 Y136.839 E8.9616
G1 X142.630 Y137.192 E8.9741
G1 X142.620 Y137.216 E8.9750
G1 X142.270 Y137.967 E9.0025
G1 X142.258 Y137.990 E9.0034
G1 X142.070 Y138.315 E9.0159
G1 X142.056 Y138.337 E9.0168
G1 X141.581 Y139.016 E9.0443
G1 X141.565 Y139.037 E9.0452
G1 X141.323 Y139.324 E9.0577
G1 X141.306 Y139.344 E9.0586
G1 X140.720 Y139.930 E9.0861
G1 X140.700 Y139.947 E9.0870
G1 X140.413 Y140.189 E9.0995
G1 X140.392 Y140.205 E9.1004
G1 X139.713 Y140.680 E9.1279
G1 X139.691 Y140.694 E9.1288
G1 X139.366 Y140.882 E9.1413
G1 X139.343 Y140.894 E9.1421
G1 X138.592 Y141.244 E9.1697
G1 X138.568 Y141.254 E9.1706
G1 X138.215 Y141.383 E9.1831
G1 X138.190 Y141.390 E9.1839
G1 X137.389 Y141.605 E9.2115
G1 X137.364 Y141.611 E9.2124
G1 X136.994 Y141.676 E9.2249
G1 X136.968 Y141.679 E9.2257
G1 X136.236 Y141.743 E9.2502
G1 X136.223 Y141.744 E9.2506
G1 X136.035 Y141.752 E9.2568
G1 X136.022 Y141.753 E9.2573
G1 X131.652 Y141.753 E9.4026
G1 X131.432 Y141.661 E9.4106
G1 X128.920 Y139.149 E9.5287
G1 X128.829 Y138.929 E9.5367
G1 X128.828 Y130.653 E9.8119
G1 X121.428 Y130.653 E10.0580
G1 X121.428 Y138.929 E10.3333
G1 X121.337 Y139.149 E10.3413
G1 X118.825 Y141.661 E10.4594
G1 X118.605 Y141.753 E10.4673
G1 X111.652 Y141.753 E10.6986
G1 X111.432 Y141.661 E10.7065
G1 X108.920 Y139.149 E10.8247
G1 X108.828 Y138.929 E10.8326
G1 X108.828 Y131.653 E11.0746
G1 X103.928 Y131.653 E11.2376
G1 X103.928 Y138.929 E11.4796
G1 X103.837 Y139.149 E11.4875
G1 X101.325 Y141.661 E11.6057
G1 X101.105 Y141.753 E11.6136
G1 X93.652 Y141.753 E11.8615
G1 X93.432 Y141.661 E11.8694
G1 X90.920 Y139.149 E11.9876
G1 X90.828 Y138.929 E11.9955
G1 X90.828 Y131.653 E12.2375
G1 X85.928 Y131.653 E12.4005
G1 X85.928 Y138.929 E12.6425
G1 X85.837 Y139.149 E12.6505
G1 X83.325 Y141.661 E12.7686
G1 X83.105 Y141.753 E12.7766
G1 X79.835 Y141.753 E12.8853
