; G-Code generated by Simplify3D(R) Version 3.0.2
; dic. 19, 2016 at 9:07:39 A. M.
; Settings Summary
;   processName,Process1
;   applyToModels,Top,Top(2),Top(3),Top(4),Top(5),Top(6)
;   profileName,Printrbot Simple Metal
;   profileVersion,2016-12-19 07:32:28
;   baseProfile,
;   printMaterial,PLA
;   printQuality,Medium
;   printExtruders,
;   extruderName,Primary Extruder
;   extruderToolheadNumber,0
;   extruderDiameter,0.4
;   extruderAutoWidth,0
;   extruderWidth,0.4
;   extrusionMultiplier,1
;   extruderUseRetract,1
;   extruderRetractionDistance,1
;   extruderExtraRestartDistance,0
;   extruderRetractionZLift,0
;   extruderRetractionSpeed,1800
;   extruderUseCoasting,0
;   extruderCoastingDistance,0.2
;   extruderUseWipe,0
;   extruderWipeDistance,5
;   primaryExtruder,0
;   layerHeight,0.2
;   topSolidLayers,3
;   bottomSolidLayers,3
;   perimeterOutlines,2
;   printPerimetersInsideOut,1
;   startPointOption,2
;   startPointOriginX,0
;   startPointOriginY,0
;   startPointOriginZ,300
;   sequentialIslands,0
;   spiralVaseMode,0
;   firstLayerHeightPercentage,90
;   firstLayerWidthPercentage,100
;   firstLayerUnderspeed,0.5
;   useRaft,0
;   raftExtruder,0
;   raftLayers,3
;   raftOffset,3
;   raftSeparationDistance,0.14
;   raftInfill,85
;   disableRaftBaseLayers,0
;   useSkirt,1
;   skirtExtruder,0
;   skirtLayers,1
;   skirtOutlines,2
;   skirtOffset,4
;   usePrimePillar,0
;   primePillarExtruder,999
;   primePillarWidth,12
;   primePillarLocation,7
;   primePillarSpeedMultiplier,1
;   useOozeShield,0
;   oozeShieldExtruder,999
;   oozeShieldOffset,2
;   oozeShieldOutlines,1
;   oozeShieldSidewallShape,1
;   oozeShieldSidewallAngle,30
;   oozeShieldSpeedMultiplier,1
;   infillExtruder,0
;   internalInfillPattern,Rectilinear
;   externalInfillPattern,Rectilinear
;   infillPercentage,15
;   outlineOverlapPercentage,15
;   infillExtrusionWidthPercentage,100
;   minInfillLength,5
;   infillLayerInterval,1
;   infillAngles,45,-45
;   overlapInfillAngles,0
;   generateSupport,0
;   supportExtruder,0
;   supportInfillPercentage,30
;   supportExtraInflation,0
;   denseSupportLayers,0
;   denseSupportInfillPercentage,70
;   supportLayerInterval,1
;   supportHorizontalPartOffset,0.3
;   supportUpperSeparationLayers,1
;   supportLowerSeparationLayers,1
;   supportType,0
;   supportGridSpacing,4
;   maxOverhangAngle,45
;   supportAngles,0
;   temperatureName,Primary Extruder
;   temperatureNumber,0
;   temperatureSetpointCount,1
;   temperatureSetpointLayers,1
;   temperatureSetpointTemperatures,208
;   temperatureStabilizeAtStartup,1
;   temperatureHeatedBed,0
;   temperatureRelayBetweenLayers,0
;   temperatureRelayBetweenLoops,0
;   fanLayers,1,2
;   fanSpeeds,0,100
;   blipFanToFullPower,1
;   adjustSpeedForCooling,1
;   minSpeedLayerTime,15
;   minCoolingSpeedSlowdown,20
;   increaseFanForCooling,0
;   minFanLayerTime,45
;   maxCoolingFanSpeed,100
;   increaseFanForBridging,0
;   bridgingFanSpeed,100
;   use5D,1
;   relativeEdistances,0
;   allowEaxisZeroing,1
;   independentExtruderAxes,0
;   includeM10123,0
;   stickySupport,1
;   applyToolheadOffsets,0
;   gcodeXoffset,0
;   gcodeYoffset,0
;   gcodeZoffset,0
;   overrideMachineDefinition,1
;   machineTypeOverride,0
;   strokeXoverride,150
;   strokeYoverride,150
;   strokeZoverride,150
;   originOffsetXoverride,0
;   originOffsetYoverride,0
;   originOffsetZoverride,0
;   homeXdirOverride,-1
;   homeYdirOverride,-1
;   homeZdirOverride,-1
;   flipXoverride,1
;   flipYoverride,-1
;   flipZoverride,1
;   toolheadOffsets,0,0|0,0|0,0|0,0|0,0|0,0
;   overrideFirmwareConfiguration,1
;   firmwareTypeOverride,RepRap (Marlin/Repetier/Sprinter)
;   GPXconfigOverride,r2
;   baudRateOverride,250000
;   overridePrinterModels,1
;   printerModelsOverride
;   startingGcode,G28 X0 Y0 ; home X and Y axes,G28 Z0,G29 ; probe Z
;   layerChangeGcode,
;   retractionGcode,
;   toolChangeGcode,
;   endingGcode,M104 S0 T0 ; turn off extruder,M140 S0 T1 ; turn off bed,M107 ; turn off fan,G28 X0 ; home X axis,M84 ; disable motors
;   createX3G,0
;   celebration,0
;   celebrationSong,Random Song
;   createMB5G,0
;   postProcessing,
;   defaultSpeed,3000
;   outlineUnderspeed,0.5
;   solidInfillUnderspeed,0.8
;   supportUnderspeed,0.8
;   rapidXYspeed,3600
;   rapidZspeed,1000
;   minBridgingArea,50
;   bridgingExtraInflation,0
;   bridgingExtrusionMultiplier,1
;   bridgingSpeedMultiplier,1
;   filamentDiameter,1.75
;   filamentPricePerKg,46
;   filamentDensity,1.25
;   useMinPrintHeight,0
;   minPrintHeight,0
;   useMaxPrintHeight,0
;   maxPrintHeight,0
;   useDiaphragm,0
;   diaphragmLayerInterval,20
;   robustSlicing,1
;   mergeAllIntoSolid,0
;   onlyRetractWhenCrossingOutline,1
;   retractBetweenLayers,1
;   useRetractionMinTravel,0
;   retractionMinTravel,3
;   retractWhileWiping,0
;   onlyWipeOutlines,1
;   avoidCrossingOutline,0
;   maxMovementDetourFactor,3
;   toolChangeRetractionDistance,12
;   toolChangeExtraRestartDistance,-0.5
;   toolChangeRetractionSpeed,600
;   allowThinWallGapFill,1
;   thinWallAllowedOverlapPercentage,10
;   horizontalSizeCompensation,0
G90
M82
M106 S0
M104 S208 T0
M109 S208 T0
G28 X0 Y0 ; home X and Y axes
G28 Z0
G29 ; probe Z
G92 E0
G1 E-1.0000 F1800
G1 Z0.180 F1000
; layer 1, Z = 0.18
T0
; tool H0.200 W0.400
; skirt
G1 X40.308 Y12.337 F3600
G1 E0.0000 F540
G92 E0
G1 X40.659 Y11.586 E0.0276 F1500
G1 X40.671 Y11.563 E0.0284
G1 X40.858 Y11.237 E0.0409
G1 X40.873 Y11.215 E0.0418
G1 X41.348 Y10.537 E0.0694
G1 X41.364 Y10.516 E0.0702
G1 X41.605 Y10.228 E0.0827
G1 X41.623 Y10.209 E0.0836
G1 X42.209 Y9.623 E0.1111
G1 X42.228 Y9.605 E0.1120
G1 X42.516 Y9.364 E0.1245
G1 X42.537 Y9.348 E0.1254
G1 X43.215 Y8.873 E0.1529
G1 X43.238 Y8.858 E0.1538
G1 X43.563 Y8.671 E0.1663
G1 X43.586 Y8.659 E0.1672
G1 X44.337 Y8.308 E0.1947
G1 X44.361 Y8.298 E0.1956
G1 X44.714 Y8.170 E0.2081
G1 X44.739 Y8.162 E0.2090
G1 X45.539 Y7.948 E0.2365
G1 X45.565 Y7.942 E0.2374
G1 X45.935 Y7.877 E0.2499
G1 X45.961 Y7.873 E0.2508
G1 X46.693 Y7.809 E0.2752
G1 X46.706 Y7.808 E0.2756
G1 X46.893 Y7.800 E0.2819
G1 X46.906 Y7.800 E0.2823
G1 X103.094 Y7.800 E2.1511
G1 X103.107 Y7.800 E2.1516
G1 X103.294 Y7.808 E2.1578
G1 X103.307 Y7.809 E2.1582
G1 X104.039 Y7.873 E2.1827
G1 X104.065 Y7.877 E2.1835
G1 X104.435 Y7.942 E2.1960
G1 X104.461 Y7.948 E2.1969
G1 X105.261 Y8.162 E2.2245
G1 X105.286 Y8.170 E2.2253
G1 X105.639 Y8.298 E2.2378
G1 X105.663 Y8.308 E2.2387
G1 X106.414 Y8.659 E2.2663
G1 X106.437 Y8.671 E2.2671
G1 X106.762 Y8.858 E2.2796
G1 X106.785 Y8.873 E2.2805
G1 X107.463 Y9.348 E2.3080
G1 X107.484 Y9.364 E2.3089
G1 X107.772 Y9.605 E2.3214
G1 X107.791 Y9.623 E2.3223
G1 X108.377 Y10.209 E2.3498
G1 X108.395 Y10.228 E2.3507
G1 X108.636 Y10.516 E2.3632
G1 X108.652 Y10.537 E2.3641
G1 X109.127 Y11.215 E2.3916
G1 X109.141 Y11.237 E2.3925
G1 X109.329 Y11.562 E2.4050
G1 X109.341 Y11.586 E2.4059
G1 X109.692 Y12.337 E2.4334
G1 X109.702 Y12.361 E2.4343
G1 X109.830 Y12.714 E2.4468
G1 X109.838 Y12.739 E2.4477
G1 X110.052 Y13.539 E2.4752
G1 X110.058 Y13.565 E2.4761
G1 X110.123 Y13.935 E2.4886
G1 X110.127 Y13.960 E2.4894
G1 X110.191 Y14.692 E2.5139
G1 X110.192 Y14.705 E2.5143
G1 X110.200 Y14.893 E2.5206
G1 X110.200 Y14.906 E2.5210
G1 X110.200 Y26.594 E2.9097
G1 X110.200 Y26.607 E2.9102
G1 X110.192 Y26.795 E2.9164
G1 X110.191 Y26.808 E2.9168
G1 X110.127 Y27.540 E2.9413
G1 X110.123 Y27.565 E2.9421
G1 X110.058 Y27.935 E2.9546
G1 X110.052 Y27.961 E2.9555
G1 X109.838 Y28.761 E2.9831
G1 X109.830 Y28.786 E2.9839
G1 X109.702 Y29.139 E2.9964
G1 X109.692 Y29.163 E2.9973
G1 X109.341 Y29.914 E3.0249
G1 X109.329 Y29.938 E3.0257
G1 X109.141 Y30.263 E3.0382
G1 X109.127 Y30.285 E3.0391
G1 X108.652 Y30.963 E3.0666
G1 X108.636 Y30.984 E3.0675
G1 X108.395 Y31.272 E3.0800
G1 X108.377 Y31.291 E3.0809
G1 X108.068 Y31.600 E3.0954
G1 X108.377 Y31.909 E3.1099
G1 X108.395 Y31.928 E3.1108
G1 X108.636 Y32.216 E3.1233
G1 X108.652 Y32.237 E3.1242
G1 X109.127 Y32.915 E3.1517
G1 X109.141 Y32.937 E3.1526
G1 X109.329 Y33.262 E3.1651
G1 X109.341 Y33.286 E3.1659
G1 X109.692 Y34.037 E3.1935
G1 X109.702 Y34.061 E3.1944
G1 X109.830 Y34.414 E3.2069
G1 X109.838 Y34.439 E3.2077
G1 X110.052 Y35.239 E3.2353
G1 X110.058 Y35.265 E3.2362
G1 X110.123 Y35.635 E3.2487
G1 X110.127 Y35.660 E3.2495
G1 X110.191 Y36.392 E3.2740
G1 X110.192 Y36.405 E3.2744
G1 X110.200 Y36.593 E3.2807
G1 X110.200 Y36.606 E3.2811
G1 X110.200 Y48.294 E3.6698
G1 X110.200 Y48.307 E3.6703
G1 X110.192 Y48.495 E3.6765
G1 X110.191 Y48.508 E3.6769
G1 X110.127 Y49.240 E3.7014
G1 X110.123 Y49.265 E3.7022
G1 X110.058 Y49.635 E3.7147
G1 X110.052 Y49.661 E3.7156
G1 X109.838 Y50.461 E3.7432
G1 X109.830 Y50.486 E3.7440
G1 X109.702 Y50.839 E3.7565
G1 X109.692 Y50.863 E3.7574
G1 X109.341 Y51.614 E3.7850
G1 X109.329 Y51.638 E3.7858
G1 X109.141 Y51.963 E3.7983
G1 X109.127 Y51.985 E3.7992
G1 X108.652 Y52.663 E3.8267
G1 X108.636 Y52.684 E3.8276
G1 X108.395 Y52.972 E3.8401
G1 X108.377 Y52.991 E3.8410
G1 X108.068 Y53.300 E3.8555
G1 X108.377 Y53.609 E3.8700
G1 X108.395 Y53.628 E3.8709
G1 X108.636 Y53.916 E3.8834
G1 X108.652 Y53.936 E3.8843
G1 X109.127 Y54.615 E3.9118
G1 X109.141 Y54.637 E3.9127
G1 X109.329 Y54.963 E3.9252
G1 X109.341 Y54.986 E3.9261
G1 X109.692 Y55.737 E3.9536
G1 X109.702 Y55.761 E3.9545
G1 X109.830 Y56.114 E3.9670
G1 X109.838 Y56.139 E3.9678
G1 X110.052 Y56.939 E3.9954
G1 X110.058 Y56.965 E3.9963
G1 X110.123 Y57.335 E4.0088
G1 X110.127 Y57.361 E4.0096
G1 X110.191 Y58.093 E4.0341
G1 X110.192 Y58.106 E4.0345
G1 X110.200 Y58.293 E4.0408
G1 X110.200 Y58.306 E4.0412
G1 X110.200 Y69.994 E4.4299
G1 X110.200 Y70.007 E4.4304
G1 X110.192 Y70.194 E4.4366
G1 X110.191 Y70.207 E4.4370
G1 X110.127 Y70.939 E4.4615
G1 X110.123 Y70.965 E4.4623
G1 X110.058 Y71.335 E4.4748
G1 X110.052 Y71.361 E4.4757
G1 X109.838 Y72.161 E4.5033
G1 X109.830 Y72.186 E4.5041
G1 X109.702 Y72.539 E4.5166
G1 X109.692 Y72.563 E4.5175
G1 X109.341 Y73.314 E4.5451
G1 X109.329 Y73.337 E4.5459
G1 X109.142 Y73.663 E4.5584
G1 X109.127 Y73.685 E4.5593
G1 X108.652 Y74.363 E4.5868
G1 X108.636 Y74.384 E4.5877
G1 X108.395 Y74.672 E4.6002
G1 X108.377 Y74.691 E4.6011
G1 X108.068 Y75.000 E4.6156
G1 X108.377 Y75.309 E4.6301
G1 X108.395 Y75.328 E4.6310
G1 X108.636 Y75.616 E4.6435
G1 X108.652 Y75.636 E4.6444
G1 X109.127 Y76.315 E4.6719
G1 X109.142 Y76.337 E4.6728
G1 X109.329 Y76.663 E4.6853
G1 X109.341 Y76.686 E4.6861
G1 X109.692 Y77.437 E4.7137
G1 X109.702 Y77.461 E4.7146
G1 X109.830 Y77.814 E4.7271
G1 X109.838 Y77.839 E4.7279
G1 X110.052 Y78.639 E4.7555
G1 X110.058 Y78.665 E4.7564
G1 X110.123 Y79.035 E4.7689
G1 X110.127 Y79.061 E4.7697
G1 X110.191 Y79.793 E4.7942
G1 X110.192 Y79.806 E4.7946
G1 X110.200 Y79.993 E4.8008
G1 X110.200 Y80.006 E4.8013
G1 X110.200 Y91.694 E5.1900
G1 X110.200 Y91.707 E5.1905
G1 X110.192 Y91.894 E5.1967
G1 X110.191 Y91.907 E5.1971
G1 X110.127 Y92.639 E5.2216
G1 X110.123 Y92.665 E5.2224
G1 X110.058 Y93.035 E5.2349
G1 X110.052 Y93.061 E5.2358
G1 X109.838 Y93.861 E5.2634
G1 X109.830 Y93.886 E5.2642
G1 X109.702 Y94.239 E5.2767
G1 X109.692 Y94.263 E5.2776
G1 X109.341 Y95.014 E5.3051
G1 X109.329 Y95.037 E5.3060
G1 X109.141 Y95.363 E5.3185
G1 X109.127 Y95.385 E5.3194
G1 X108.652 Y96.064 E5.3469
G1 X108.636 Y96.084 E5.3478
G1 X108.395 Y96.372 E5.3603
G1 X108.377 Y96.391 E5.3612
G1 X108.068 Y96.700 E5.3757
G1 X108.377 Y97.009 E5.3902
G1 X108.395 Y97.028 E5.3911
G1 X108.636 Y97.316 E5.4036
G1 X108.652 Y97.337 E5.4045
G1 X109.127 Y98.015 E5.4320
G1 X109.142 Y98.037 E5.4329
G1 X109.329 Y98.363 E5.4454
G1 X109.341 Y98.386 E5.4462
G1 X109.692 Y99.137 E5.4738
G1 X109.702 Y99.161 E5.4747
G1 X109.830 Y99.514 E5.4872
G1 X109.838 Y99.539 E5.4880
G1 X110.052 Y100.339 E5.5156
G1 X110.058 Y100.365 E5.5165
G1 X110.123 Y100.735 E5.5290
G1 X110.127 Y100.761 E5.5298
G1 X110.191 Y101.493 E5.5543
G1 X110.192 Y101.506 E5.5547
G1 X110.200 Y101.693 E5.5609
G1 X110.200 Y101.706 E5.5614
G1 X110.200 Y113.394 E5.9501
G1 X110.200 Y113.407 E5.9505
G1 X110.192 Y113.594 E5.9568
G1 X110.191 Y113.607 E5.9572
G1 X110.127 Y114.339 E5.9817
G1 X110.123 Y114.365 E5.9825
G1 X110.058 Y114.735 E5.9950
G1 X110.052 Y114.761 E5.9959
G1 X109.838 Y115.561 E6.0235
G1 X109.830 Y115.586 E6.0243
G1 X109.702 Y115.939 E6.0368
G1 X109.692 Y115.963 E6.0377
G1 X109.341 Y116.714 E6.0652
G1 X109.329 Y116.737 E6.0661
G1 X109.142 Y117.063 E6.0786
G1 X109.127 Y117.085 E6.0795
G1 X108.652 Y117.763 E6.1070
G1 X108.636 Y117.784 E6.1079
G1 X108.395 Y118.072 E6.1204
G1 X108.377 Y118.091 E6.1213
G1 X108.068 Y118.400 E6.1358
G1 X108.377 Y118.709 E6.1503
G1 X108.395 Y118.728 E6.1512
G1 X108.636 Y119.016 E6.1637
G1 X108.652 Y119.036 E6.1645
G1 X109.127 Y119.715 E6.1921
G1 X109.142 Y119.737 E6.1930
G1 X109.329 Y120.063 E6.2055
G1 X109.341 Y120.086 E6.2063
G1 X109.692 Y120.837 E6.2339
G1 X109.702 Y120.861 E6.2348
G1 X109.830 Y121.214 E6.2473
G1 X109.838 Y121.239 E6.2481
G1 X110.052 Y122.039 E6.2757
G1 X110.058 Y122.065 E6.2766
G1 X110.123 Y122.435 E6.2891
G1 X110.127 Y122.461 E6.2899
G1 X110.191 Y123.193 E6.3144
G1 X110.192 Y123.206 E6.3148
G1 X110.200 Y123.393 E6.3210
G1 X110.200 Y123.406 E6.3215
G1 X110.200 Y135.094 E6.7102
G1 X110.200 Y135.107 E6.7106
G1 X110.192 Y135.294 E6.7169
G1 X110.191 Y135.307 E6.7173
G1 X110.127 Y136.039 E6.7418
G1 X110.123 Y136.065 E6.7426
G1 X110.058 Y136.435 E6.7551
G1 X110.052 Y136.461 E6.7560
G1 X109.838 Y137.261 E6.7836
G1 X109.830 Y137.286 E6.7844
G1 X109.702 Y137.639 E6.7969
G1 X109.692 Y137.663 E6.7978
G1 X109.341 Y138.414 E6.8253
G1 X109.329 Y138.437 E6.8262
G1 X109.141 Y138.763 E6.8387
G1 X109.127 Y138.785 E6.8396
G1 X108.652 Y139.463 E6.8671
G1 X108.636 Y139.484 E6.8680
G1 X108.395 Y139.772 E6.8805
G1 X108.377 Y139.791 E6.8814
G1 X107.791 Y140.377 E6.9089
G1 X107.772 Y140.395 E6.9098
G1 X107.484 Y140.636 E6.9223
G1 X107.463 Y140.652 E6.9232
G1 X106.785 Y141.127 E6.9507
G1 X106.763 Y141.141 E6.9516
G1 X106.437 Y141.329 E6.9641
G1 X106.414 Y141.341 E6.9649
G1 X105.663 Y141.692 E6.9925
G1 X105.639 Y141.702 E6.9934
G1 X105.286 Y141.830 E7.0059
G1 X105.261 Y141.838 E7.0067
G1 X104.461 Y142.052 E7.0343
G1 X104.435 Y142.058 E7.0352
G1 X104.065 Y142.123 E7.0477
G1 X104.039 Y142.127 E7.0485
G1 X103.308 Y142.191 E7.0730
G1 X103.294 Y142.191 E7.0734
G1 X103.107 Y142.200 E7.0796
G1 X103.094 Y142.200 E7.0801
G1 X98.724 Y142.200 E7.2254
G1 X98.503 Y142.109 E7.2334
G1 X95.991 Y139.597 E7.3515
G1 X95.900 Y139.376 E7.3595
G1 X95.900 Y131.100 E7.6347
G1 X88.500 Y131.100 E7.8809
G1 X88.500 Y139.376 E8.1561
G1 X88.409 Y139.597 E8.1641
G1 X85.897 Y142.109 E8.2822
G1 X85.676 Y142.200 E8.2902
G1 X78.724 Y142.200 E8.5214
G1 X78.503 Y142.109 E8.5293
G1 X75.991 Y139.597 E8.6475
G1 X75.900 Y139.376 E8.6554
G1 X75.900 Y132.100 E8.8974
G1 X71.000 Y132.100 E9.0604
G1 X71.000 Y139.376 E9.3024
G1 X70.909 Y139.597 E9.3104
G1 X68.397 Y142.109 E9.4285
G1 X68.176 Y142.200 E9.4364
G1 X60.724 Y142.200 E9.6843
G1 X60.503 Y142.109 E9.6923
G1 X57.991 Y139.597 E9.8104
G1 X57.900 Y139.376 E9.8183
G1 X57.900 Y132.100 E10.0604
G1 X53.000 Y132.100 E10.2233
G1 X53.000 Y139.376 E10.4653
G1 X52.909 Y139.597 E10.4733
G1 X50.397 Y142.109 E10.5914
G1 X50.176 Y142.200 E10.5994
G1 X46.906 Y142.200 E10.7081
G1 X46.893 Y142.200 E10.7086
G1 X46.706 Y142.191 E10.7148
G1 X46.692 Y142.191 E10.7152
G1 X45.960 Y142.127 E10.7397
G1 X45.935 Y142.123 E10.7406
G1 X45.565 Y142.058 E10.7530
G1 X45.539 Y142.052 E10.7539
G1 X44.739 Y141.838 E10.7815
G1 X44.714 Y141.830 E10.7823
G1 X44.361 Y141.702 E10.7948
G1 X44.337 Y141.692 E10.7957
G1 X43.586 Y141.341 E10.8233
G1 X43.563 Y141.329 E10.8241
G1 X43.237 Y141.141 E10.8366
G1 X43.215 Y141.127 E10.8375
G1 X42.536 Y140.652 E10.8651
G1 X42.516 Y140.636 E10.8659
G1 X42.228 Y140.395 E10.8784
G1 X42.209 Y140.377 E10.8793
G1 X41.623 Y139.791 E10.9068
G1 X41.605 Y139.772 E10.9077
G1 X41.364 Y139.484 E10.9202
G1 X41.348 Y139.463 E10.9211
G1 X40.873 Y138.785 E10.9486
G1 X40.858 Y138.763 E10.9495
G1 X40.671 Y138.437 E10.9620
G1 X40.659 Y138.414 E10.9629
G1 X40.308 Y137.663 E10.9904
G1 X40.298 Y137.639 E10.9913
G1 X40.170 Y137.286 E11.0038
G1 X40.162 Y137.261 E11.0047
G1 X39.948 Y136.461 E11.0322
G1 X39.942 Y136.435 E11.0331
G1 X39.877 Y136.065 E11.0456
